app/client/src/widgets/SwitchGroupWidget/icon.svg

<svg width="24" height="24" viewBox="0 0 24 24" fill="none" xmlns="http://www.w3.org/2000/svg">
<path fill-rule="evenodd" clip-rule="evenodd" d="M11 6C11 4.89543 10.1046 4 9 4H6C4.89543 4 4 4.89543 4 6C4 7.10457 4.89543 8 6 8H9C10.1046 8 11 7.10457 11 6ZM9 7C9.55228 7 10 6.55228 10 6C10 5.44772 9.55228 5 9 5C8.44772 5 8 5.44772 8 6C8 6.55228 8.44772 7 9 7Z" fill="#4B4848"/>
<path d="M12.9998 5.80005C12.9998 5.38584 13.3355 5.05005 13.7498 5.05005L19.2498 5.05005C19.664 5.05005 19.9998 5.38584 19.9998 5.80005C19.9998 6.21426 19.664 6.55005 19.2498 6.55005L13.7498 6.55005C13.3355 6.55005 12.9998 6.21426 12.9998 5.80005Z" fill="#4B4848"/>
<path fill-rule="evenodd" clip-rule="evenodd" d="M11 12C11 10.8954 10.1046 10 9 10H6C4.89543 10 4 10.8954 4 12C4 13.1046 4.89543 14 6 14H9C10.1046 14 11 13.1046 11 12ZM9 13C9.55228 13 10 12.5523 10 12C10 11.4477 9.55228 11 9 11C8.44772 11 8 11.4477 8 12C8 12.5523 8.44772 13 9 13Z" fill="#4B4848"/>
<path d="M12.9998 11.8C12.9998 11.3858 13.3355 11.05 13.7498 11.05L19.2498 11.05C19.664 11.05 19.9998 11.3858 19.9998 11.8C19.9998 12.2143 19.664 12.55 19.2498 12.55L13.7498 12.55C13.3355 12.55 12.9998 12.2143 12.9998 11.8Z" fill="#4B4848"/>
<circle cx="6" cy="18" r="1" fill="#4B4848"/>
<path d="M4.25 18C4.25 17.0335 5.0335 16.25 6 16.25H9C9.9665 16.25 10.75 17.0335 10.75 18C10.75 18.9665 9.9665 19.75 9 19.75H6C5.0335 19.75 4.25 18.9665 4.25 18Z" stroke="#4B4848" stroke-width="0.5"/>
<path d="M13 17.8C13 17.3858 13.3358 17.05 13.75 17.05L19.25 17.05C19.6642 17.05 20 17.3858 20 17.8C20 18.2143 19.6642 18.55 19.25 18.55L13.75 18.55C13.3358 18.55 13 18.2143 13 17.8Z" fill="#4B4848"/>
</svg>

<svg width="24" height="24" fill="none" xmlns="http://www.w3.org/2000/svg"><path fill-rule="evenodd" clip-rule="evenodd" d="M11 6a2 2 0 0 0-2-2H6a2 2 0 1 0 0 4h3a2 2 0 0 0 2-2zM9 7a1 1 0 1 0 0-2 1 1 0 0 0 0 2z" fill="#EAEAEA"/><path d="M13 5.8a.75.75 0 0 1 .75-.75h5.5a.75.75 0 0 1 0 1.5h-5.5A.75.75 0 0 1 13 5.8z" fill="#EAEAEA"/><path fill-rule="evenodd" clip-rule="evenodd" d="M11 12a2 2 0 0 0-2-2H6a2 2 0 1 0 0 4h3a2 2 0 0 0 2-2zm-2 1a1 1 0 1 0 0-2 1 1 0 0 0 0 2z" fill="#EAEAEA"/><path d="M13 11.8a.75.75 0 0 1 .75-.75h5.5a.75.75 0 0 1 0 1.5h-5.5a.75.75 0 0 1-.75-.75z" fill="#EAEAEA"/><circle cx="6" cy="18" r="1" fill="#EAEAEA"/><path d="M6 16.25h3a1.75 1.75 0 1 1 0 3.5H6a1.75 1.75 0 1 1 0-3.5z" stroke="#EAEAEA" stroke-width=".5"/><path d="M13 17.8a.75.75 0 0 1 .75-.75h5.5a.75.75 0 0 1 0 1.5h-5.5a.75.75 0 0 1-.75-.75z" fill="#EAEAEA"/></svg>
